resources/svg/sun-o.svg

<svg width="15" height="15" viewBox="0 0 15 15" fill="none" xmlns="http://www.w3.org/2000/svg">
<path d="M7.5 1.49933V0.5M7.5 14.4908V13.4915M13.5 7.49542H14.5M1.5 7.49542H0.5M2.5 2.49866L1.5 1.49933M13.5 1.49933L12.5 2.49866M2.5 12.4921L1.5 13.4915M13.5 13.4915L12.5 12.4921M10.5 7.49542C10.5 9.15134 9.157 10.4935 7.5 10.4935C5.843 10.4935 4.5 9.15134 4.5 7.49542C4.5 5.8395 5.843 4.49738 7.5 4.49738C9.157 4.49738 10.5 5.8395 10.5 7.49542Z" stroke="black" stroke-linecap="square"/>
</svg>

<svg viewBox="0 0 15 15" fill="none" xmlns="http://www.w3.org/2000/svg" fill="currentColor"><path d="M7.5 1.5v-1m0 13.99v-.998m6-5.997h1m-13 0h-1m2-4.996l-1-1m12 0l-1 1m-10 9.993l-1 1m12 0l-1-1m-2-4.997a2.999 2.999 0 01-3 2.998 2.999 2.999 0 113-2.998z" stroke="currentColor" stroke-linecap="square"/></svg>
